X:1
T:Are You Ready for the Coming?
T:Charles Hutchinson Gabriel
T:Are You Ready for the Coming?
T:Public Domain
T:Public Domain
T:Public Domain
T:Public Domain
C:Charles Hutchinson Gabriel
Z:Public Domain
%%score ( 1 2 ) ( 3 4 )
L:1/8
M:4/4
K:Db
V:1 treble 
V:2 treble 
V:3 bass 
V:4 bass 
V:1
 [DF][EG] | [FA][FA][FA][GB] [FA][DF][CE]D | [DB]2 [DB]2 [Gd]2 [Ac][GB] | %3
w: 1.~Are you|read- y for the com- ing of the|from Heav’n? Are you rest-|
w: 2.~If He|came to call His peo- ple would you|dis- mayed? Though your sins|
w: 3.~To this|world with all its plea- sures are you|ed fast? Would a call|
w: 4.~Are you|bu- sy in His serv- ice though your|is cold? Are there pre-|
 [FA][FA][FA][GB] [FA][DF][DE]D | [DF]2 [CE]2 [CE]2 [DF][EG] | [FA][FA][FA][GB] [FA][DF][CE]D | %6
w: ing in the prom- ise which to us|giv’n? Does your heart leap|up with rap- ture as you know He’s|
w: have been for- giv- en would you be|fraid? Would you be a-|shamed to meet Him if He came to-|
w: to leave it quick- ly be a wrench|last? When He views your|fin- ished life work will you suf- fer|
w: cious earth- ly trea- sures which you fond-|hold? Would He find you|do- ing on- ly what He could ap-|
 [DB]2 [DB]2 [Gd]2 [Ac][GB] | [FA][FA][EA][EB] [Ec][Ec][Ee][Fd] | [Ec]2 [DB]2 [CA]2 || %9
w: Or do thoughts of His|ap- pear- ing fill your heart with fear?||
w: From the pre- sence of|the Mas- ter would you shrink a- way?|Are you read-|
w: Will you find that you|have ga- thered on- ly worth- less dross?||
w: Would He find you watch-|ing, wait- ing for the One you love?||
"^Refrain" [DF][EG] | [FA]<[Fd-] (F>F F<F) [Fe][Fd] | [Ac]<[GB-] (G>G G<G) [=Ge][Gd] | %12
w: |||
w: y, Are|you read- y, * * * Are you|y for the * * * open- ing|
w: |||
w: |||
 [Gc]<[Gc] [Gc]>[GB] [FA]2 [EG]2 | (D2 =B,B, [CA]2) [DF][EG] | [FA]<[Fd-] (F>F F<F) [Fe][Fd] | %15
w: |||
w: skies? Are you read- y, Are|you * * * read- y,|you read- y * * * for that|
w: |||
w: |||
 [Ac]<([GB-] G>G G<G) [=Ge][Gd] | [Gc]<[Gc] [Gc]>[GA] [Af]2 [Ge]2 | (z2 G2 F2) |] %18
w: |||
w: surprise? * * * * * * *|||
w: |||
w: |||
V:2
 x2 | x7 D | x8 | x7 D | x8 | x7 D | x8 | x8 | x6 || x2 | x2 d6 | x2 B4 x2 | x8 | F4 x4 | %14
w: |Lord||is||near?|||||||||
w: |be||a-||day?|||||read-|||Are|
w: |root-||at||loss?|||||||||
w: |heart||ly||prove?|||||||||
 x2 d4 x2 | x2 B4 x2 | x8 | F6 |] %18
w: ||||
w: glad-||||
w: ||||
w: ||||
V:3
 [D,A,][D,A,] | [D,D][D,D][D,D][D,D] [D,D][D,A,][E,A,][F,A,] | G,2 G,2 [G,B,]2 [G,C][G,D] | %3
w: ~ ~|~ ~ ~ ~ ~ ~ ~ ~|~ ~ ~ ~ ~|
 [D,D][D,D][D,D][D,D] [D,D][D,A,][D,G,][D,F,] | [A,,A,]2 [A,,A,]2 [A,,A,]2 [D,A,][D,A,] | %5
w: ~ ~ ~ ~ ~ ~ ~ ~|~ ~ ~ ~ ~|
 [D,D][D,D][D,D][D,D] [D,D][D,A,][E,A,][F,A,] | G,2 G,2 [G,B,]2 [G,C][G,D] | %7
w: ~ ~ ~ ~ ~ ~ ~ ~|~ ~ ~ ~ ~|
 [D,D][D,D][C,A,][E,=G,] A,A,[C,A,][D,A,] | [E,A,]2 [E,=G,]2 [A,,A,]2 || [D,A,][D,A,] | %10
w: ~ ~ ~ ~ ~ ~ ~ ~|~ I am|read- y,|
 [D,A,]<[D,A,] [D,A,]>[D,A,] [D,A,]<[D,A,] [D,A,][D,D] | %11
w: ~ ~ ~ ~ I am read- y,|
 [G,D]<[G,D] [G,D]>[G,D] [G,D]<[G,D] [E,D][E,E] | [A,E]<[A,E] [A,E]>[A,C] [A,D]2 A,2 | %13
w: ~ ~ ~ ~ ~ ~ ~ ~|~ open- ing~skies ~ ~ ~|
 D,2 =D,D, [E,A,]2 [D,A,][D,A,] | [D,A,]<[D,A,] [D,A,]>[D,A,] [D,A,]<[D,A,] [F,A,][A,D] | %15
w: I am read- y, ~ ~|~ ~ I am read- y, ~ ~|
 [G,D]<[G,D] [G,D]>[G,D] [G,D]<[G,D] [E,D][E,E] | [A,E]<[A,E] [A,E]>[A,C] [A,D]2 (CA,) | %17
w: ~ ~ ~ ~ ~ ~ sur- prise?||
 z2 B,2 A,2 |] %18
w: |
V:4
 x2 | x8 | G,2 G,2 x4 | x8 | x8 | x8 | G,2 G,2 x4 | x4 A,A, x2 | x6 || x2 | x8 | x8 | x6 A,2 | %13
w: ||~ ~||||~ ~|~ ~|||||~|
 A,4- x4 | x8 | x8 | x6 A,2 | [D,A,]6 |] %18
w: ~|||||

